dist/icons/svgs/check-circle-outline.svg

<svg xmlns="http://www.w3.org/2000/svg" width="24" height="24" fill="currentcolor" class="icon-check-circle-outline" viewBox="0 0 24 24">
  <path d="M12 3.875C9.07031 3.875 6.41406 5.4375 4.92969 7.9375C3.48438 10.4766 3.48438 13.5625 4.92969 16.0625C6.41406 18.6016 9.07031 20.125 12 20.125C14.8906 20.125 17.5469 18.6016 19.0312 16.0625C20.4766 13.5625 20.4766 10.4766 19.0312 7.9375C17.5469 5.4375 14.8906 3.875 12 3.875ZM12 22C8.40625 22 5.125 20.125 3.32812 17C1.53125 13.9141 1.53125 10.125 3.32812 7C5.125 3.91406 8.40625 2 12 2C15.5547 2 18.8359 3.91406 20.6328 7C22.4297 10.125 22.4297 13.9141 20.6328 17C18.8359 20.125 15.5547 22 12 22ZM16.4141 10.1641L11.4141 15.1641C11.0234 15.5547 10.4375 15.5547 10.0859 15.1641L7.58594 12.6641C7.19531 12.3125 7.19531 11.7266 7.58594 11.375C7.9375 10.9844 8.52344 10.9844 8.91406 11.375L10.75 13.2109L15.0859 8.875C15.4375 8.48438 16.0234 8.48438 16.4141 8.875C16.7656 9.22656 16.7656 9.8125 16.4141 10.1641Z"/>
</svg>

<svg xmlns="http://www.w3.org/2000/svg" width="24" height="24" fill="currentColor" class="icon-check-circle-outline" viewBox="0 0 24 24">
  <path d="M12 3.875c-2.93 0-5.586 1.563-7.07 4.063-1.446 2.539-1.446 5.625 0 8.125A8.13 8.13 0 0 0 12 20.125c2.89 0 5.547-1.523 7.031-4.062 1.446-2.5 1.446-5.586 0-8.125-1.484-2.5-4.14-4.063-7.031-4.063M12 22c-3.594 0-6.875-1.875-8.672-5-1.797-3.086-1.797-6.875 0-10C5.125 3.914 8.406 2 12 2c3.555 0 6.836 1.914 8.633 5 1.797 3.125 1.797 6.914 0 10A9.93 9.93 0 0 1 12 22m4.414-11.836-5 5c-.39.39-.976.39-1.328 0l-2.5-2.5a.856.856 0 0 1 0-1.289c.351-.39.937-.39 1.328 0l1.836 1.836 4.336-4.336c.351-.39.937-.39 1.328 0a.92.92 0 0 1 0 1.29"/>
</svg>
